resources/svg/detach.svg

<svg xmlns="http://www.w3.org/2000/svg" viewBox="0 0 24 24" fill="currentColor"><path fill="none" stroke="currentColor" stroke-width="2" d="M4,4 L20,20 M22,12 C22,12 16.7200572,17.2799437 16.7200572,17.2799437 M15,19 C15,19 13.7932491,20.2067517 13.0000004,21.0000004 C6.99999996,27.0000004 -2.00000007,18.0000004 3.99999994,12.0000004 C4.88551518,11.1144851 6,10 6,10 M8,8 C8,8 10.1615592,5.83844087 13,3.00000008 C17,-0.999999955 23,4.99999994 19,9.00000005 C16.9873313,11.0126688 14,14 14,14 M12,16 C12,16 10.6478339,17.3521667 9.99999995,18.0000004 C7.99999952,20 5,17 6.99999995,15.0000004 C7.50049504,14.4995054 9,13 9,13 M11,11 C10.7388543,11.261146 16,6 16,6"/></svg>

<svg viewBox="0 0 24 24"><path fill="none" stroke="currentColor" stroke-width="2" d="M4 4l16 16m2-8l-5.28 5.28M15 19l-2 2c-6 6-15-3-9-9l2-2m2-2l5-5c4-4 10 2 6 6l-5 5m-2 2l-2 2c-2 2-5-1-3-3l2-2m2-2l5-5"/></svg>
